res/skins/Tango/buttons/btn_hotcues_on.svg

<svg xmlns="http://www.w3.org/2000/svg" width="20" height="20"><defs><linearGradient id="v"><stop offset="0" stop-color="#ffb401"/><stop offset="1" stop-color="#c68c00"/></linearGradient><linearGradient id="i"><stop offset="0" stop-color="#b0b0b0"/><stop offset="1" stop-color="#585858" stop-opacity="0"/></linearGradient><linearGradient id="e"><stop offset="0" stop-color="#e90808"/><stop offset="1" stop-color="#b60000"/></linearGradient><linearGradient id="c"><stop offset="0" stop-color="#eece33" stop-opacity=".95054942"/><stop offset=".61061949" stop-color="#ff734e" stop-opacity=".8186813"/><stop offset="1" stop-color="#ff2d2d" stop-opacity="0"/></linearGradient><linearGradient id="d"><stop offset="0" stop-color="#060606"/><stop offset="1" stop-color="#343434"/></linearGradient><linearGradient id="a"><stop offset="0" stop-color="#060606"/><stop offset="1" stop-color="#2a2a2a"/></linearGradient><linearGradient id="b"><stop offset="0" stop-color="#060606"/><stop offset="1" stop-color="#2a2a2a"/></linearGradient><linearGradient id="f"><stop offset="0" stop-color="#eece33" stop-opacity=".95054942"/><stop offset=".61061949" stop-color="#ff734e" stop-opacity=".8186813"/><stop offset="1" stop-color="#ff2d2d" stop-opacity="0"/></linearGradient><linearGradient id="g"><stop offset="0" stop-color="#e90808"/><stop offset="1" stop-color="#b60000"/></linearGradient><linearGradient x1="16.8985" y1="20.7381" x2="9.2021799" y2="-2.3512399" id="h" gradientUnits="userSpaceOnUse"><stop offset="0" stop-color="#060606"/><stop offset="1" stop-color="#343434"/></linearGradient><linearGradient x1="16.8985" y1="20.7381" x2="9.2021799" y2="-2.3512399" id="j" gradientUnits="userSpaceOnUse"><stop offset="0" stop-color="#060606" stop-opacity="0"/><stop offset=".34285715" stop-color="#fff" stop-opacity="0"/><stop offset="1" stop-color="#fff"/></linearGradient><linearGradient id="k"><stop offset="0" stop-color="#7c7c7c" stop-opacity="0"/><stop offset="1" stop-color="#fff"/></linearGradient><linearGradient id="l"><stop offset="0" stop-color="#eece33" stop-opacity=".95054942"/><stop offset=".61061949" stop-color="#ff734e" stop-opacity=".8186813"/><stop offset="1" stop-color="#ff2d2d" stop-opacity="0"/></linearGradient><linearGradient id="m"><stop offset="0" stop-color="#e90808"/><stop offset="1" stop-color="#b60000"/></linearGradient><linearGradient x1="16.8985" y1="20.7381" x2="9.2021799" y2="-2.3512399" id="n" gradientUnits="userSpaceOnUse"><stop offset="0" stop-color="#060606" stop-opacity="0"/><stop offset=".34285715" stop-color="#fff" stop-opacity="0"/><stop offset="1" stop-color="#fff"/></linearGradient><linearGradient id="o"><stop offset="0" stop-color="#e90808"/><stop offset="1" stop-color="#b60000"/></linearGradient><linearGradient id="p"><stop offset="0" stop-color="#eece33" stop-opacity=".95054942"/><stop offset=".51428574" stop-color="#e85708" stop-opacity=".95686275"/><stop offset="1" stop-color="#e80808" stop-opacity="0"/></linearGradient><linearGradient id="q"><stop offset="0" stop-color="#e90808"/><stop offset="1" stop-color="#b60000"/></linearGradient><linearGradient id="r"><stop offset="0" stop-color="#3ae" stop-opacity=".95054942"/><stop offset=".61061949" stop-color="#4ebeff" stop-opacity=".8186813"/><stop offset="1" stop-color="#2db2ff" stop-opacity="0"/></linearGradient><linearGradient id="s"><stop offset="0" stop-color="#0897e9"/><stop offset="1" stop-color="#0074b6"/></linearGradient><linearGradient id="t"><stop offset="0" stop-color="#e90808"/><stop offset="1" stop-color="#b60000"/></linearGradient><linearGradient id="u"><stop offset="0" stop-color="#0897e9"/><stop offset="1" stop-color="#0074b6"/></linearGradient></defs><path style="line-height:125%;-inkscape-font-specification:Biting My Nails" d="M5 9V2.0005932h1.311V9H5M11 9V7.6444445l1.4-2.8h2.866666V3.3111111h-3.577777L11.033333 2h4.844445l.7 1.3777778v2.7777778h-3.455556l-.766666 1.5333333h3.877777L16.888888 9H11M7.8555555 18H3l.6555555-1.311111h3.5777778v-1.533334H5.1666667l-.7333334-1.31111h2.8v-1.533334H3.6555555L3 11h4.8555555l.6888889 1.377778v4.244444L7.8555555 18M15.266932 18v-2.844445H11v-1.333333L15.222485 11h1.35564v7h-1.311193m0-5.466667l-2.022348 1.311112h2.022348v-1.311112" font-size="13" font-weight="400" letter-spacing="0" word-spacing="0" fill="#d2d2d2" font-family="Biting My Nails"/></svg>

<svg width="20" height="20" xmlns="http://www.w3.org/2000/svg"><path d="m5 9v-6.9994h1.311v6.9994h-1.311m6 0v-1.3556l1.4-2.8h2.8667v-1.5333h-3.5778l-0.65556-1.3111h4.8444l0.7 1.3778v2.7778h-3.4556l-0.76667 1.5333h3.8778l0.65556 1.3111h-5.8889m-3.1444 9h-4.8556l0.65556-1.3111h3.5778v-1.5333h-2.0667l-0.73333-1.3111h2.8v-1.5333h-3.5778l-0.65556-1.3111h4.8556l0.68889 1.3778v4.2444l-0.68889 1.3778m7.4114 0v-2.8444h-4.2669v-1.3333l4.2225-2.8222h1.3556v7h-1.3112m0-5.4667-2.0223 1.3111h2.0223v-1.3111" fill="#d2d2d2" font-family="Biting My Nails" font-size="13" font-weight="400" letter-spacing="0" word-spacing="0"/></svg>
